bs-navigator/img/icons/telegram.svg

<svg width="18" height="16" viewBox="0 0 18 16" fill="none" xmlns="http://www.w3.org/2000/svg">
<g clip-path="url(#clip0_4_22)">
<path d="M17.588 0.413996C17.4757 0.28017 17.3347 0.17343 17.1754 0.101744C17.0161 0.0300577 16.8427 -0.00472344 16.668 -3.74764e-06C16.448 0.00317522 16.2304 0.0465552 16.026 0.127996L0.900027 5.9C0.100027 6.206 -0.0109727 6.666 2.72988e-05 6.913C0.0110273 7.16 0.141027 7.613 0.959027 7.873H0.974027L4.11103 8.773L5.81103 13.624C5.89304 13.9234 6.06811 14.189 6.31095 14.3824C6.5538 14.5759 6.85184 14.6871 7.16203 14.7C7.56898 14.6895 7.95662 14.5243 8.24603 14.238L10.186 12.452L13 14.715L13.027 14.737L13.034 14.743C13.3129 14.9732 13.6606 15.1038 14.022 15.114C14.3529 15.1008 14.668 14.9696 14.9105 14.7442C15.153 14.5188 15.3068 14.214 15.344 13.885L17.823 1.651C17.8786 1.44033 17.8863 1.21991 17.8456 1.00588C17.805 0.791848 17.7169 0.589617 17.588 0.413996ZM5.16003 8.6L11.211 5.509L7.44303 9.509C7.38133 9.57443 7.33758 9.65469 7.31603 9.742L6.59003 12.693L5.16003 8.6ZM7.53703 13.461C7.51203 13.484 7.48703 13.505 7.46103 13.524L8.13503 10.794L9.36103 11.781L7.53703 13.461ZM16.8 1.443L14.319 13.677C14.295 13.794 14.219 14.067 14.019 14.067C13.8919 14.0545 13.7719 14.0023 13.676 13.918L10.487 11.351L8.58703 9.823L14.036 4.033C14.1212 3.94338 14.1718 3.82651 14.179 3.70311C14.1862 3.5797 14.1494 3.45775 14.0752 3.35888C14.001 3.26 13.8942 3.1906 13.7737 3.16298C13.6532 3.13536 13.5269 3.15131 13.417 3.208L4.46103 7.786L1.28203 6.876L16.4 1.106C16.4854 1.07028 16.5765 1.05029 16.669 1.047C16.701 1.047 16.758 1.047 16.779 1.077C16.8317 1.19248 16.8385 1.32369 16.798 1.444L16.8 1.443Z" fill="#9FA79A"/>
</g>
<defs>
<clipPath id="clip0_4_22">
<rect width="17.864" height="15.114" fill="white"/>
</clipPath>
</defs>
</svg>

<svg width="18" height="16" fill="none" xmlns="http://www.w3.org/2000/svg"><g clip-path="url(#clip0_4_22)"><path d="M17.588.414a1.16 1.16 0 00-.92-.414c-.22.003-.438.047-.642.128L.9 5.9c-.8.306-.911.766-.9 1.013.011.247.141.7.959.96h.015l3.137.9 1.7 4.851A1.464 1.464 0 007.162 14.7a1.6 1.6 0 001.084-.462l1.94-1.786L13 14.715l.027.022.007.006c.279.23.627.36.988.371a1.386 1.386 0 001.322-1.229l2.479-12.234a1.46 1.46 0 00-.235-1.237zM5.16 8.6l6.051-3.091-3.768 4a.522.522 0 00-.127.233l-.726 2.951L5.16 8.6zm2.377 4.861a.874.874 0 01-.076.063l.674-2.73 1.226.987-1.824 1.68zM16.8 1.443l-2.481 12.234c-.024.117-.1.39-.3.39a.61.61 0 01-.343-.149l-3.189-2.567-1.9-1.528 5.449-5.79a.523.523 0 00-.619-.825L4.461 7.786l-3.179-.91L16.4 1.106a.768.768 0 01.269-.059c.032 0 .089 0 .11.03a.5.5 0 01.019.367l.002-.001z" fill="#9FA79A"/></g><defs><clipPath id="clip0_4_22"><path fill="#fff" d="M0 0h17.864v15.114H0z"/></clipPath></defs></svg>
